!!!ONB: MCCC : IJH0422_04 : Extracted Monophonic Melody
!!!COM: Haydn, Joseph
!!!OPR: String Quartet in C major
!!!OMV: 4
!!!SCT: Hob.III:72 ; Op.74 No.1
!!!ODT: 1793///
**kern
*thru
*k[]
*C:
*clefF
*M2/4
8cc
=1
8b
8cc
8dd
8ff
=2
8ee
8dd
8cc
8gg
=3
8ff
8ee
8dd
8cc
=4
8b
8ee
8dd
8cc
=5
8b
8cc
8dd
8ff
=6
8ee
8dd
8cc
8gg#
=7
8aa
8gg
8ff
8gg
=8
8ee
8ff
8dd
8g
=9
8cc
8b
8cc
8cc#
=10
8dd
8ee
8ff
8dd
=11
8b
8b
16b
16cc
16dd
16b
=12
8cc
8ee
8cc
8cc
=13
8b
8cc
8dd
8ff
=14
8ee
8dd
8cc
8gg
=15
8ff
8ee
8dd
8cc
=16
8b
8ee
8dd
8cc
=17
8b
8cc
8dd
8ff
=18
8ee
8dd
8cc
8gg#
=19
8aa
8gg
8ff
8gg
=20
8ee
8ff
8dd
8g
=21
8cc
8b
8cc
8cc#
=22
8dd
8ee
8ff
8dd
=23
8b
8cc
16b
16cc
16dd
16b
=24
8cc
8cc
8cc
8ccc
=25
4.ee
8ff
=26
8ff#
8gg
8gg
8ccc
=27
4.ee
8ff
=28
8ff#
8gg
8gg
8cc
=29
4cc#
8dd
8ee
=30
4gg
8ff
8aa
=31
4cc
8b
8gg
=32
4ff
8ee
8r
=33
8r
8ccc
8gg#
8aa
=34
8ee
8dd
8dd
8r
=35
2r
=36
2r
=37
8r
8ccc
16bb
16aa
16gg
16ff
=38
8ee
8dd
8dd
8ee
=39
8dd
8cc
8cc
8dd
=40
8cc
8b
8b
8gg
=41
4.b
8cc#
=42
8ee
8dd
8dd
8dd
=43
4.f#
8g
=44
4g#
8a
8dd
=45
4.g
8a
=46
4a#
8b
8dd
=47
4.a
8b
=48
2dd
=49
4.cc
8r
=50
4r
16r
16dd
16ee
16ff#
=51
16gg
16aa
16bb
16ccc
16ddd
16bb
16aa
16bb
=52
16ccc
16bb
16aa
16gg
16ff#
16dd
16ee
16ff#
=53
16gg
16aa
16bb
16ccc
16ddd
16bb
16aa
16bb
=54
16ccc
16bb
16aa
16gg
16ff#
16dd
16ee
16ff#
=55
16gg
16aa
16bb
16aa
16gg
16ff#
16ee
16dd
=56
16cc#
16bb
16aa
16gg#
16aa
16cc
16dd
16cc
=57
16b
16gg
16bb
16gg
16a
16ff#
16aa
16ff#
=58
16g
16ee
16gg
16ee
16f
16dd
16ff
16dd
=59
16e
16cc
16ee
16cc
16d
16b
16dd
16b
=60
16e
16cc
16e
16cc
16e-
16cc
16e-
16cc
=61
16d
16e
16f#
16g
16a
16b
16cc
16dd
=62
4b
8r
8g
=63
8f#
8g
8a
8cc
=64
4b
8r
8gg
=65
8ff#
8gg
8aa
8ccc
=66
8bb
8ff#
8gg
8dd#
=67
8ee
8b
16cc
16b
16a
16g
=68
16f#
16g
16a
16g
16f#
16e
16d
16c
=69
16B
16G
16d
16G
16e
16G
16f#
16G
=70
16g
16G
16d
16G
16e
16G
16f#
16G
=71
16g
16f#
16a
16g
16b
16a
16cc
16b
=72
16dd
16cc
16ee
16dd
16ff
16dd
16ff
16dd
=73
16dd#
16ee
16dd#
16ee
16ff#
16gg
16ee
16cc
=74
16b
16dd
16b
16g
16a
16cc
16a
16f#
=75
4g
4r
=76
2r
=77
2r
=78
8r
8ccc
8bb
8ccc
=79
8ccc#
4ddd
8ccc[
=80
8ccc]
4bb
8aa
=81
4gg
4r
=82
2r
=83
2r
=84
8r
8ccc
8bb
8ccc
=85
8ccc#
4ddd
8ccc[
=86
8ccc]
4bb
8aa
=87
8gg
8gg
8ff#
8gg
=88
8ff
4ee
8dd#[
=89
8dd#]
4ee
16cc
16a
=90
4g
16a
16g
16a
16b
=91
4.g
8dd
=92
8cc#
8dd
8ee
8dd
=93
8b
16a
16b
8g
8gg
=94
8ff#
8ff
8ee
8ee-
=95
16dd
16ee
16dd
16cc#
8dd
8dd
=96
8cc#
8dd
8ee
8dd
=97
8b
16a
16b
8g
8b
=98
8a
8cc
8d
16e
16f#
=99
8g
8g#
8a
8b
=100
8a
8cc
8d
16e
16f#
=101
4.g
8b
=102
8a
8cc
8d
16e
16f#
=103
8g
8g#
8a
8b
=104
8a
8cc
8d
16e
16f#
=105
8g
8r
8b
8r
=106
4g
8r
8r
=107
2r
=108
2r
=109
2r
=110
2r
=111
2r
=112
2r
=113
2r
=114
2r
=115
2r
=116
2r
=117
2r
=118
2r
=119
4r
8r
8a
=120
8e
8f
8g
16f
16e
=121
4f
4r
=122
4r
16r
16cc
16dd
16ee
=123
16ff
16gg
16aa
16bb-
16ccc
16aa
16gg
16aa
=124
16bb-
16aa
16gg
16ff
16ee
16cc
16dd
16ee
=125
16ff
16gg
16aa
16bb-
16ccc
16aa
16gg
16aa
=126
16bb-
16aa
16gg
16ff
16ee
16cc
16dd
16ee
=127
16ff
16gg
16aa
16bb-
16ccc
16bb-
16aa
16gg
=128
16ff#
16gg
16ff#
16ee
16dd
16ccc
16bb-
16aa
=129
16gg
16aa
16bb-
16ccc
16ddd
16ccc
16bb
16aa
=130
16gg#
16aa
16gg#
16ff#
16ee
16ddd
16ccc
16bb
=131
16ccc
16ddd
16ccc
16bb
16aa
16ccc
16bb
16aa
=132
16gg#
16aa
16gg#
16ff#
16ee
16ff
16ee
16dd
=133
16cc
16dd
16cc
16b
16a
16cc
16b
16a
=134
16g#
16a
16g#
16f#
16e
16f
16e
16d
=135
16c
16d
16c
16B
16A
16c
16B
16A
=136
4e
4r
=137
2r
=138
2r
=139
2r
=140
2r
=141
2r
=142
8r
8ee
8dd#
8ee
=143
8ee
4ff
8ee[
=144
8ee]
4dd
8cc#
=145
8dd
8dd
8cc#
8dd
=146
8dd#
4ee
8dd[
=147
8dd]
4cc
8b
=148
2cc
=149
4cc#
4dd
=150
4ee
4ff
=151
2cc
=152
4b
4cc
=153
4dd
4ee[
=154
8ee]
8a
8dd
8cc
=155
8b
8cc
8dd
8ff
=156
8ee
8dd
8cc
8gg
=157
8ff
8ee
8dd
8cc
=158
8b
8ee
8dd
8cc
=159
8b
8cc
8dd
8ff
=160
8ee
8dd
8cc
8gg#
=161
8aa
8gg
8ff
8gg
=162
8ee
8ff
8dd
8g
=163
8cc
8b
8cc
8cc#
=164
8dd
8ee
8ff
8dd
=165
8b
8cc
16b
16cc
16dd
16b
=166
8cc
8ee
8cc
8ccc
=167
4.ee
8ff
=168
8ff#
8gg
8gg
8ccc
=169
4.ee
8ff
=170
8ff#
8gg
8gg
8r
=171
8gg#
8aa
8aa
8r
=172
8aa
8bb-
8bb-
8r
=173
8bb-
8aa
8aa
8r
=174
8bb
8ccc
8ccc
8r
=175
8ccc
8bb
8bb
8ccc
=176
8ccc
8bb
8bb
8g
=177
4.B
8c
=178
4c#
8d
8g
=179
4.c
8d
=180
4d#
8e
8g
=181
4.d
8e
=182
2g
=183
4.f
8r
=184
4r
16r
16g
16a
16b
=185
16cc
16dd
16ee
16ff
16gg
16ee
16dd
16ee
=186
16ff
16ee
16dd
16cc
16b
16g
16a
16b
=187
16cc
16dd
16ee
16ff
16gg
16ee
16dd
16ee
=188
16ff
16ee
16dd
16cc
16b
16g
16a
16b
=189
16cc
16dd
16ee
16dd
16cc
16b
16a
16g
=190
16f#
16ee
16dd
16cc#
16dd
16f
16g
16f
=191
16e
16cc
16ee
16cc
16f
16dd
16ff
16dd
=192
16g
16ee
16gg
16ee
16a
16ff
16aa
16ff
=193
16b-
16gg
16bb-
16gg
16bb-
16gg
16bb-
16gg
=194
16a
16gg
16aa
16gg
16aa
16gg
16aa
16gg
=195
16a
16ff
16aa
16ff
16aa
16ff
16aa
16ff
=196
16dd
16ff
16gg
16ff
16dd
16ff
16gg
16ff
=197
16cc
16ee
16gg
16ee
16gg
16ee
16gg
16ee
=198
16ff#
16aa
16ccc
16aa
16ff#
16ccc
16aa
16ff#
=199
16gg
16ff#
16gg
16aa
16gg
16ff
16ee
16dd
=200
4cc
8r
8cc
=201
8b
8cc
8dd
8ff
=202
4ee
8r
8ccc
=203
8bb
8ccc
8ddd
8fff
=204
8eee
8bb
8ccc
8gg#
=205
8aa
8ee
16ff
16ee
16dd
16cc
=206
16b
16cc
16dd
16cc
16b
16a
16g
16f
=207
16e
16g
16cc
16b
16a
16aa
16gg
16ff
=208
16ee
16gg
16ee
16cc
16dd
16ff
16dd
16b
=209
4cc
4r
=210
2r
=211
2r
=212
8r
8ff
8ee
8ff
=213
8ff#
4gg
8ff[
=214
8ff]
4ee
8dd
=215
4cc
4r
=216
2r
=217
2r
=218
8r
8ff
8ee
8ff
=219
8ff#
4gg
8ff[
=220
8ff]
4ee
8dd
=221
16cc
16ccc
16cc
16ccc
16cc
16ccc
16cc
16ccc
=222
16cc
16ccc
16cc
16ccc
16cc
16ccc
16cc
16ccc
=223
16cc
16ccc
16cc
16ccc
16cc
16ccc
16cc
16ccc
=224
16cc
16ccc
16cc
16ccc
16cc
16ccc
16cc
16ccc
=225
8cc
8ccc
8bb
8ccc
=226
8aa
8aa
8gg#
8aa
=227
8gg
4ff
8ee[
=228
8ee]
4dd
8cc
=229
8b
8gg
8ff#
8gg
=230
8gg#
4aa
8gg[
=231
8gg]
4ff
8ee[
=232
8ee]
8dd
8ee
8ff
=233
8ff#
4gg
8ff[
=234
8ff]
4ee
8dd[
=235
8dd]
8cc
8dd
8ee
=236
8gg
8ff#
8ccc
8ff#
=237
8aa
8gg
4r
=238
8r
8ccc
8bb
8ccc#
=239
4ddd
4eee
=240
4fff
8eee
8ddd
=241
8ccc
8bb
8aa
8bb
=242
4ccc
4ddd
=243
4eee
8ddd
8ccc
=244
8bb
8aa
16fff
16ddd
16fff
16ddd
=245
8.bb
16ddd
16fff
16ddd
16fff
16ddd
=246
8.bb
16ddd
16fff
16ddd
16fff
16ddd
=247
16bb
16ddd
16fff
16ddd
16bb
16ddd
16fff
16ddd
=248
4bb
8r
8cc
=249
8b
8cc
8dd
8ff
=250
4ee
8r
8b
=251
8a
8b
8cc
8ee
=252
4dd
8r
8a
=253
8g
8a
8b
8a
=254
8b
8cc
8dd
8cc#
=255
8dd
8ee
8ff
8ff
=256
8ee
8ff
8gg
8bb-
=257
4aa
8r
8ee
=258
8dd
8ee
8ff
8aa
=259
4gg
8r
8dd
=260
8cc
8dd
8ee
8gg
=261
8ff
8ee
8dd
8cc
=262
8b
8ee
8dd
8cc
=263
8b
8cc
8dd
8ff
=264
8ee
8dd
8cc
8gg#
=265
8aa
8gg
8ff
8gg
=266
8ee
8ff
8dd
8g
=267
8cc
8b
8cc
8cc#
=268
8dd
8ee
8ff
8dd
=269
8b
8cc
16b
16cc
16dd
16b
=270
4.cc
8gg
=271
8ff#
8gg
8aa
8gg
=272
8ee
16dd
16ee
8cc
8ccc
=273
8bb
8bb-
8aa
8aa-
=274
16gg
16aa
16gg
16ff#
8gg
8gg
=275
8ff#
8gg
8aa
8gg
=276
8ee
16dd
16ee
8cc
8ee
=277
8dd
8ff
8g
16a
16b
=278
8cc
8cc#
8dd
8ee
=279
8dd
8ff
8g
16a
16b
=280
4.cc
8ee
=281
8dd
8ff
8g
16a
16b
=282
8cc
8cc#
8dd
8ee
=283
8dd
8ff
8g
16a
16b
=284
8cc
8r
8ee
8r
=285
4cc
8r
8r
==
*-
